svgs/sharp-regular/venus-double.svg

<svg xmlns="http://www.w3.org/2000/svg" viewBox="0 0 640 512"><!--! Font Awesome Pro 6.6.0 by @fontawesome - https://fontawesome.com License - https://fontawesome.com/license (Commercial License) Copyright 2024 Fonticons, Inc. --><path d="M192 304a128 128 0 1 0 0-256 128 128 0 1 0 0 256zM368 176c0 89.1-66.2 162.7-152 174.4l0 49.6 48 0 24 0 0 48-24 0-48 0 0 40 0 24-48 0 0-24 0-40-48 0-24 0 0-48 24 0 48 0 0-49.6C82.2 338.7 16 265.1 16 176C16 78.8 94.8 0 192 0s176 78.8 176 176zM344 318c10.9-11.7 20.5-24.6 28.5-38.6C393.7 294.9 419.8 304 448 304c70.7 0 128-57.3 128-128s-57.3-128-128-128c-28.2 0-54.3 9.1-75.5 24.6c-8-14-17.6-26.9-28.5-38.6C373.1 12.6 409.1 0 448 0c97.2 0 176 78.8 176 176c0 89.1-66.2 162.7-152 174.4l0 49.6 48 0 24 0 0 48-24 0-48 0 0 40 0 24-48 0 0-24 0-40-48 0-24 0 0-48 24 0 48 0 0-49.6c-29.7-4-57-15.5-80-32.4z"/></svg>

<svg xmlns="http://www.w3.org/2000/svg" viewBox="0 0 640 512"><!--! Font Awesome Pro 6.5.2 by @fontawesome - https://fontawesome.com License - https://fontawesome.com/license (Commercial License) Copyright 2024 Fonticons, Inc. --><path d="M192 304a128 128 0 1 0 0-256 128 128 0 1 0 0 256zM368 176c0 89.1-66.2 162.7-152 174.4V400h48 24v48H264 216v40 24H168V488 448H120 96V400h24 48V350.4C82.2 338.7 16 265.1 16 176C16 78.8 94.8 0 192 0s176 78.8 176 176zM344 318c10.9-11.7 20.5-24.6 28.5-38.6C393.7 294.9 419.8 304 448 304c70.7 0 128-57.3 128-128s-57.3-128-128-128c-28.2 0-54.3 9.1-75.5 24.6c-8-14-17.6-26.9-28.5-38.6C373.1 12.6 409.1 0 448 0c97.2 0 176 78.8 176 176c0 89.1-66.2 162.7-152 174.4V400h48 24v48H520 472v40 24H424V488 448H376 352V400h24 48V350.4c-29.7-4-57-15.5-80-32.4z"/></svg>
